X:194
T:The Back-40 Jig
R:jig
C:Bruce Osborne  --  Apr. 1993
Z:abc by bosborne@kos.net
M:6/8
L:1/8
K:G
B/c/|dBG DGD|G,B,D GBG|AcA DFA|ed^c dB=c|\
dBG DGD|G,B,D GBG|AcA DEF|GBA G2:|
|:B/c/|dgd BdB|GAB D2 G|AcA DFA|ed^c dB=c|\
dgd BdB|GAB D2 G|FGA DEF|G4 -G:|
